!!!COM: Haydn, Franz Joseph 
!!!OPR: String Quartet in G Major 
!!!ONM: Opus 64, No. 4 
!!!OTL: Menuetto + Trio 
!!!OMV: 2 
!!!SCT: H III:66 
!!!SCA: Thematisch-bibliographisches Werkevererzeichnis (A. van Hoboken) 
!!!YOR: Trautwein Edition 
!!!EED: Frances Bennion 
!!!ENC: Frances Bennion 
!!!CDT: 1732/3/31/-1809/5/31/
!!!OCY: Österreich 
!!!YEC: Copyright (c) 1994, 2000 Center for Computer Assisted Research in the Humanities 
!!!YEM: Rights to all derivative editions reserved. 
!!!YEM: Refer to licensing agreement for further details. 
!!!YEN: United States of America 
**kern	**kern	**kern	**kern
*k[f#]	*k[f#]	*k[f#]	*k[f#]
*G:	*G:	*G:	*G:
*clefF	*clefF	*clefC3	*clefF4
*M3/4	*M3/4	*M3/4	*M3/4
*tb16	*tb16	*tb16	*tb16
=0-	=0-	=0-	=0-
2r	2r	2r	2r
8dd	4r	4r	4r
8b	.	.	.
=1	=1	=1	=1
8f#	4r	4r	4r
8g	.	.	.
4d	4d	4B	4G
8bb	4d	4B	4G
8gg	.	.	.
=2	=2	=2	=2
8ff#	4r	4r	4r
8aa	.	.	.
4cc	4f#	4A	4D
8a	4f#	4A	4D
8cc	.	.	.
=3	=3	=3	=3
16cc	8g	8G	8G
16b	.	.	.
8r	8r	8r	8r
16dd	8g	8E	8E
16cc	.	.	.
8r	8r	8r	8r
16ee	8g	8C	8C
16cc	.	.	.
8r	8r	8r	8r
=4	=4	=4	=4
2a	2f#	4D	4D
.	.	2r	4d
4d	4r	.	4r
=5	=5	=5	=5
2g	4r	4r	4r
.	4d	4G	4BB
8b	4d	4f	4BB
8g#	.	.	.
=6	=6	=6	=6
8b	4e	4e	4C
8a	.	.	.
4cc	4r	2r	2r
8cc	8e	.	.
8b	8d	.	.
=7	=7	=7	=7
4a	2.c	2.f#	4D
8a	.	.	4D
8g	.	.	.
8a	.	.	4D
8d	.	.	.
=8	=8	=8	=8
4g	4B	4g	4GG
2r	4r	2r	4G
.	8cc	.	4r
.	8b	.	.
=9	=9	=9	=9
2r	4a	2f#	4C
.	8a	.	4C
.	8g	.	.
4ff#	8a	4d	4C
.	8d	.	.
=10	=10	=10	=10
8gg	4g	4d	4BB
8aa	.	.	.
8bb	4r	4g	4GG
8aa	.	.	.
8gg	8b	4r	4r
8ff#	8a	.	.
=11	=11	=11	=11
4ee	4g	2.c#	4AA
8ee	8g	.	4AA
8dd	8f#	.	.
8ee	8g	.	4AA
8a	8e	.	.
=12	=12	=12	=12
2dd	8f#	4d	4DD
.	8a	.	.
.	8dd	4f#	4D
.	8ff#	.	.
8fff#	8aa	4f#	4D
8ddd	8ff#	.	.
=13	=13	=13	=13
8ccc#	2.gg	8e	4DD
8eee	.	8c#	.
8ggg	.	8e	4D
8eee	.	8g	.
8ccc#	.	8e	4D
8eee	.	8c#	.
=14	=14	=14	=14
4ddd	2ff#	4d	4DD
4aa	.	4f#	4D
8fff#	8dd	4f#	4D
8ddd	8ff#	.	.
=15	=15	=15	=15
8ccc#	4gg	8e	4DD
8eee	.	8c#	.
8ggg	4gg	8e	4D
8eee	.	8g	.
8ccc#	4gg	8e	4D
8eee	.	8c#	.
=16	=16	=16	=16
2ddd	2ff#	4d	2.D
.	.	4a	.
8eee	8gg	8c#	.
8ccc#	8ee	8e	.
=17	=17	=17	=17
2ddd	2ff#	4d	2.D
.	.	4a	.
8eee	4gg#	4b	.
8bb	.	.	.
=18	=18	=18	=18
2ccc	4aa	4r	2.D
.	4ee	4g	.
8ddd	4ff#	4a	.
8aa	.	.	.
=19	=19	=19	=19
8ccc	4gg	2r	4D
8bb	.	.	.
8ddd	4r	.	2r
8bb	.	.	.
8aa	4b	4g	.
8gg	.	.	.
=20	=20	=20	=20
8gg	4cc	4a	4D
8ff#	.	.	.
8aa	4r	4r	2r
8ff#	.	.	.
8dd	4a	4f#	.
8cc	.	.	.
=21	=21	=21	=21
8b	4b	4g	4D
8dd	.	.	.
8gg	8r	2r	2r
8dd	8dd	.	.
8b	8b	.	.
8g	8g	.	.
=22	=22	=22	=22
8d	8d	8d	8D
8f#	8f#	8f#	8F#
8a	8a	8a	8A
8f#	8f#	8f#	8F#
8d	8d	8d	8D
8c	8c	8c	8C
=23	=23	=23	=23
8B	8B	8B	8BB
8d	8d	8d	8D
8g	8g	8g	8G
8d	8d	8d	8D
8B	8B	8B	8BB
8G	8G	8G	8GG
=24	=24	=24	=24
4d	4d	4d	4D
4r	2r	4D	4DD
8dd	.	4r	4r
8b	.	.	.
=25	=25	=25	=25
8f#	4r	4r	4r
8g	.	.	.
4d	4d	4B	4G
8bb	4d	4B	4G
8gg	.	.	.
=26	=26	=26	=26
8ff#	4r	4r	4r
8aa	.	.	.
4cc	4f#	4A	4D
8a	4f#	4A	4D
8cc	.	.	.
=27	=27	=27	=27
16cc	8g	8G	8G
16b	.	.	.
8r	8r	8r	8r
16dd	8g	8E	8E
16cc	.	.	.
8r	8r	8r	8r
16ee	8g	8C	8C
16cc	.	.	.
8r	8r	8r	8r
=28	=28	=28	=28
2a	2f#	4D	4D
.	.	2r	4d
4d	4r	.	4r
=29	=29	=29	=29
2g	4r	4r	4r
.	4d	4G	4BB
8b	4d	4f	4BB
8g#	.	.	.
=30	=30	=30	=30
8b	4e	4e	4C
8a	.	.	.
4cc	4r	2r	2r
8cc	8e	.	.
8b	8d	.	.
=31	=31	=31	=31
4a	2.c	2.f#	4D
8a	.	.	4D
8g	.	.	.
8a	.	.	4D
8d	.	.	.
=32	=32	=32	=32
4g	4B	4g	4GG
4r	2r	2r	4G
8bb	.	.	4r
8gg	.	.	.
=33	=33	=33	=33
8dd	4d	4B	4GG
8b	.	.	.
8g	4r	4r	2r
8d	.	.	.
8b	4d	4B	.
8g	.	.	.
=34	=34	=34	=34
8e	4e	4c	4GG
8g	.	.	.
8cc	4r	4r	2r
8e	.	.	.
8d	4d	4B	.
8b	.	.	.
=35	=35	=35	=35
8c	4A	4F#	4D
8b	.	.	.
8a	4cc	2r	2r
8ff#	.	.	.
8gg	4b	.	.
8dd	.	.	.
=36	=36	=36	=36
8cc	4a	4f#	4D
8dd	.	.	.
8cc	4cc	4a	4r
8a	.	.	.
8b	4b	4g	4D
8g	.	.	.
=37	=37	=37	=37
8d	4a	4f#	4D
8ff#	.	.	.
8d	2r	2r	2r
8dd	.	.	.
8bb	.	.	.
8gg	.	.	.
=38	=38	=38	=38
8dd	4d	4B	4G
8b	.	.	.
8g	4r	4r	2r
8d	.	.	.
8b	4d	4B	.
8g	.	.	.
=39	=39	=39	=39
8e	4e	4c	4GG
8g	.	.	.
8cc	4r	4r	2r
8e	.	.	.
8d	4d	4B	.
8b	.	.	.
=40	=40	=40	=40
8c	4A	4F#	4D
8b	.	.	.
8a	4cc	4r	4r
8ff#	.	.	.
8gg	4b	4G	4GG
8dd	.	.	.
=41	=41	=41	=41
8cc	4ee	4c	4C
8ee	.	.	.
8dd	4dd	4B	4D
8b	.	.	.
8cc	4f#	4A	4D
8a	.	.	.
=42	=42	=42	=42
8g	4g	4B	4GG
8gg	.	.	.
8g	4r	4r	4G
8r	.	.	.
8dd	4a	4f#	4r
8ddd	.	.	.
=43	=43	=43	=43
8ee	4b	4g	2r
8ddd	.	.	.
8dd	4a	4f#	.
8ddd	.	.	.
8ff#	4cc	4a	4D
8ddd	.	.	.
=44	=44	=44	=44
8bb	4b	4g	4G
8gg	.	.	.
8dd	4r	4r	2r
8b	.	.	.
8g	4d	4B	.
8gg	.	.	.
=45	=45	=45	=45
8a	4e	4c	2r
8gg	.	.	.
8g	4d	4B	.
8gg	.	.	.
8b	4f	4d	4G
8gg	.	.	.
=46	=46	=46	=46
8ee	4e	4c	4c
8cc	.	.	.
8g	2r	2r	2r
8gg	.	.	.
8ee	.	.	.
8cc	.	.	.
=47	=47	=47	=47
8dd	4g	4B	4B
8b	.	.	.
8g	2r	2r	2r
8gg	.	.	.
8dd	.	.	.
8b	.	.	.
=48	=48	=48	=48
8dd	4a	4a	4F#
8cc	.	.	.
8a	4r	4r	4r
8cc	.	.	.
8b	4b	4g	4G
8g	.	.	.
=49	=49	=49	=49
8d	4a	4f#	4D
8dd	.	.	.
8ff#	4a	4f#	4D
8dd	.	.	.
8aa	4a	4f#	4D
8ff#	.	.	.
=50	=50	=50	=50
8dd	4a	4f#	4D
8ddd	.	.	.
8dd	2r	2r	2r
8ddd	.	.	.
8bb	.	.	.
8gg	.	.	.
=51	=51	=51	=51
8dd	4b 4d	4g	4G
8b	.	.	.
8g	2r	2r	2r
8d	.	.	.
8b	.	.	.
8g	.	.	.
=52	=52	=52	=52
8e	4e	4c	4GG
8g	.	.	.
8cc	4r	4r	2r
8e	.	.	.
8d	4d	4B	.
8b	.	.	.
=53	=53	=53	=53
8c	4A	4F#	4D
8b	.	.	.
8a	4cc	2r	2r
8ff#	.	.	.
8gg	4b	.	.
8dd	.	.	.
=54	=54	=54	=54
8cc	4a	4f#	4D
8dd	.	.	.
8cc	4cc	4a	4D
8a	.	.	.
8b	4b	4g	4D
8g	.	.	.
=55	=55	=55	=55
8d	4a	4f#	4D
8ff#	.	.	.
8d	2r	2r	2r
8dd	.	.	.
8bb	.	.	.
8gg	.	.	.
=56	=56	=56	=56
8dd	4d	4B	4G
8b	.	.	.
8g	4r	4r	2r
8d	.	.	.
8b	4d	4B	.
8g	.	.	.
=57	=57	=57	=57
8e	4e	4c	4GG
8g	.	.	.
8cc	4r	4r	2r
8e	.	.	.
8d	4d	4B	.
8b	.	.	.
=58	=58	=58	=58
8c	4A	4F#	4D
8b	.	.	.
8a	4cc	4r	4r
8ff#	.	.	.
8gg	4b	4G	4GG
8dd	.	.	.
=59	=59	=59	=59
8cc	4ee	4c	4C
8ee	.	.	.
8dd	4dd	4B	4D
8b	.	.	.
8cc	4f#	4A	4D
8a	.	.	.
=60	=60	=60	=60
8g	4g	4G	4GG
8gg	.	.	.
8g	2r	2r	2r
4.r	.	.	.
==	==	==	==
*-	*-	*-	*-
!!!RWG1: This file contains only pitch and duration data.
!!!RWG2: Transposing instruments are not transposed.
!!!RWG3: Spines may have incompatible meters.
!!!RWG4: Durations of rests and tied notes may be interpreted.
!!!RWG: Key is interpreted using the Humdrum key tool.
!!!GTL: 6 Quartetti ("Tost III") 
!!!AFT: stage1 
!!!END: 2000/12/07
!!format changes:
!!content changes:
!!public access: complete
!!!KEY: 1781079945
!!!EMD: Converted from MuseData to Humdrum Dec 16, 2000, by Andreas Kornstaedt using muse2kern.
